X:1
T:[ID 3-13b]
T:[ID 3-13b]
T:Bezeichnung standardisiert: Polonaise Polonoise 29.
T:Urheber unbekannt Erstbeleg: 1767 (Datum in der schriftlichen Quelle) Datum in der hier transkribierten schriftlichen Quelle: 1775
C:Urheber unbekannt
C:Erstbeleg: 1767 (Datum in der schriftlichen Quelle)
C:Datum in der hier transkribierten schriftlichen Quelle: 1775
L:1/8
M:3/4
K:D
V:1 treble 
V:1
 FD/F/ F2 e2 | dc/B/ A/^G/A/B/ c2 | FA/G/ F2 e2 | d/F/G/E/ F2 F2 :: d/c/d/e/ ff Tf2 | %5
 g/f/e/d/ e2 c2 | A/B/c/d/ ee Te2 | f/e/d/c/ d2 F2 | FA/G/ F2 e2 | dc/B/ A/^G/A/B/ c2 | %10
 FA/G/ F2 e2 | d/F/G/E/ F2 F2 :| %12

